Adwaita++/actions/22/gtk-convert.svg

<svg height="22" viewBox="0 0 22 22" width="22" xmlns="http://www.w3.org/2000/svg">
  <path d="m6 0v2c-3.3137 0-6 2.6863-6 6 0 2.622 1.6837437 4.846109 4.0273438 5.662109v-2.203125c-1.2051-.689-2.0273438-1.971284-2.0273438-3.458984 0-2.2091 1.7909-4 4-4v2l4-3zm5 2.3476562v2.2070313c1.191.6929 2 1.9685125 2 3.4453125 0 2.209-1.791 4-4 4v-2l-4 3 4 3v-2c3.314 0 6-2.686 6-6 0-2.6116-1.671-4.8281437-4-5.6523438z" fill="#444" transform="translate(3 3)"/>
</svg>

<svg xmlns="http://www.w3.org/2000/svg" width="22" height="22" viewBox="0 0 22 22">
 <defs>
  <style id="current-color-scheme" type="text/css">
   .ColorScheme-Text { color:#444444; } .ColorScheme-Highlight { color:#4285f4; }
  </style>
 </defs>
 <path style="fill:currentColor" class="ColorScheme-Text" d="M 6 0 L 6 2 C 2.6863 2 0 4.6863 0 8 C 0 10.622 1.6837437 12.846109 4.0273438 13.662109 L 4.0273438 11.458984 C 2.8222438 10.769984 2 9.4877 2 8 C 2 5.7909 3.7909 4 6 4 L 6 6 L 10 3 L 6 0 z M 11 2.3476562 L 11 4.5546875 C 12.191 5.2475875 13 6.5232 13 8 C 13 10.209 11.209 12 9 12 L 9 10 L 5 13 L 9 16 L 9 14 C 12.314 14 15 11.314 15 8 C 15 5.3884 13.329 3.1718563 11 2.3476562 z" transform="translate(3 3)"/>
</svg>
